dist/img/svg/benefits-03.svg

<svg width="16" height="21" viewBox="0 0 16 21" fill="none" xmlns="http://www.w3.org/2000/svg">
<path d="M7.92308 20.4375C5.61538 20.4375 3.71795 19.7069 2.23077 18.2457C0.74359 16.7845 0 14.9254 0 12.6684C0 12.2118 0.0512821 11.7291 0.153846 11.2203C0.25641 10.6984 0.371795 10.2483 0.5 9.86999C0.628205 9.49164 0.769231 9.1133 0.923077 8.73496C1.08974 8.34357 1.21154 8.07612 1.28846 7.93261C1.36538 7.77605 1.42949 7.65863 1.48077 7.58036C1.60897 7.33248 1.80769 7.22811 2.07692 7.26725C2.20513 7.28029 2.3141 7.33248 2.40385 7.4238C2.50641 7.50208 2.57051 7.59993 2.59615 7.71734C2.83974 8.66972 3.13462 9.42641 3.48077 9.9874C3.8141 10.5223 4.17308 10.9202 4.55769 11.1811C4.1859 9.57644 4.14103 8.02393 4.42308 6.52361C4.58974 5.62341 4.86538 4.80149 5.25 4.05785C5.64744 3.30117 6.04487 2.7206 6.44231 2.31617C6.83974 1.89869 7.26923 1.53339 7.73077 1.22028C8.20513 0.907167 8.53846 0.711473 8.73077 0.633195C8.9359 0.554917 9.10256 0.496208 9.23077 0.457069C9.33333 0.430977 9.4359 0.430977 9.53846 0.457069C9.64103 0.470116 9.73718 0.515778 9.82692 0.594056C9.99359 0.750612 10.0513 0.946306 10 1.18114C9.98718 1.28551 9.96795 1.4225 9.94231 1.5921C9.91667 1.74865 9.89103 2.08134 9.86539 2.59014C9.83974 3.0859 9.83974 3.57514 9.86539 4.05785C9.90385 4.54057 9.98718 5.10156 10.1154 5.74083C10.2564 6.3801 10.4487 6.9737 10.6923 7.52165C10.7564 7.63907 10.8269 7.77605 10.9038 7.93261C10.9808 8.07612 11.0705 8.23267 11.1731 8.40227C11.2244 7.91956 11.3077 7.48251 11.4231 7.09112C11.7051 6.06046 12.25 5.3103 13.0577 4.84063C13.1218 4.80149 13.1731 4.7754 13.2115 4.76235C13.3141 4.71017 13.4167 4.6906 13.5192 4.70364C13.6346 4.71669 13.7372 4.76235 13.8269 4.84063C13.9167 4.90586 13.9808 4.99719 14.0192 5.1146C14.0705 5.21897 14.0833 5.32987 14.0577 5.44728C14.0577 5.48642 14.0513 5.53861 14.0385 5.60384C14.0385 5.66907 14.0449 5.79954 14.0577 5.99523C14.0705 6.19092 14.0962 6.39314 14.1346 6.60188C14.1859 6.81062 14.2692 7.07155 14.3846 7.38466C14.5128 7.69777 14.6731 8.01089 14.8654 8.324C15.3013 9.06764 15.5962 9.74605 15.75 10.3592C15.9167 10.9594 16 11.7291 16 12.6684C16 13.5556 15.8718 14.4036 15.6154 15.2125C15.359 16.0083 14.9872 16.7258 14.5 17.3651C14.0256 17.9913 13.4551 18.5393 12.7885 19.0089C12.1346 19.4655 11.391 19.8178 10.5577 20.0657C9.72436 20.3136 8.84615 20.4375 7.92308 20.4375ZM1.92308 9.57644C1.46154 10.7506 1.23077 11.7747 1.23077 12.6489C1.23077 14.5536 1.85897 16.1192 3.11538 17.3455C4.3718 18.5719 5.97436 19.1851 7.92308 19.1851C9.91026 19.1851 11.5449 18.5719 12.8269 17.3455C14.1218 16.1192 14.7692 14.5536 14.7692 12.6489C14.7692 12.1009 14.7372 11.6378 14.6731 11.2594C14.6218 10.868 14.5256 10.5027 14.3846 10.1635C14.2564 9.81128 14.0641 9.41336 13.8077 8.96979C13.359 8.2131 13.0641 7.45642 12.9231 6.69973C12.7821 6.92152 12.6731 7.1694 12.5962 7.44337C12.4936 7.83476 12.4167 8.28486 12.3654 8.79366C12.3141 9.28942 12.2885 9.6482 12.2885 9.86999C12.3013 10.0918 12.3141 10.2483 12.3269 10.3397C12.3269 10.4832 12.2885 10.6136 12.2115 10.731C12.1474 10.8485 12.0449 10.9333 11.9038 10.9854C11.8397 10.9985 11.7756 11.0115 11.7115 11.0246C11.6474 11.0246 11.5833 11.0115 11.5192 10.9854C11.4551 10.9594 11.3974 10.9267 11.3462 10.8876C11.2949 10.8485 11.25 10.8028 11.2115 10.7506C10.4423 9.64167 9.89744 8.74148 9.57692 8.05002C8.82051 6.3801 8.52564 4.39053 8.69231 2.08134C8.39744 2.26398 8.11539 2.47272 7.84615 2.70756C7.57692 2.94239 7.28846 3.24246 6.98077 3.60775C6.67308 3.97305 6.39744 4.42967 6.15385 4.97762C5.92308 5.52556 5.75 6.11917 5.63462 6.75844C5.54487 7.2542 5.5 7.78257 5.5 8.34357C5.5 8.89151 5.52564 9.37423 5.57692 9.79171C5.62821 10.1961 5.69872 10.5941 5.78846 10.9854C5.87821 11.3638 5.94231 11.6312 5.98077 11.7878C6.03205 11.9443 6.07051 12.0487 6.09615 12.1009C6.1218 12.1531 6.13462 12.2118 6.13462 12.277C6.13462 12.3292 6.12821 12.3814 6.11538 12.4336C6.11538 12.4858 6.10256 12.538 6.07692 12.5901C6.05128 12.6423 6.01923 12.6945 5.98077 12.7467C5.8141 12.9293 5.61538 12.9946 5.38462 12.9424C5.32051 12.9293 5.23718 12.9098 5.13462 12.8837C5.04487 12.8445 4.87821 12.7663 4.63462 12.6489C4.39103 12.5314 4.15385 12.3944 3.92308 12.2379C3.70513 12.0813 3.45513 11.8661 3.17308 11.5921C2.90385 11.3051 2.66026 10.992 2.44231 10.6528C2.35256 10.5093 2.26282 10.3462 2.17308 10.1635C2.08333 9.96783 2 9.77214 1.92308 9.57644Z" fill="#C78E66"/>
</svg>

<svg width="16" height="21" viewBox="0 0 16 21" fill="none" xmlns="http://www.w3.org/2000/svg"><path d="M7.923 20.438c-2.308 0-4.205-.731-5.692-2.192C.744 16.785 0 14.926 0 12.668c0-.456.051-.939.154-1.448.102-.522.218-.972.346-1.35.128-.378.27-.757.423-1.135.167-.391.289-.659.365-.802a3.41 3.41 0 0 1 .193-.353c.128-.248.327-.352.596-.313a.519.519 0 0 1 .327.157.494.494 0 0 1 .192.293c.244.953.539 1.71.885 2.27.333.535.692.933 1.077 1.194-.372-1.605-.417-3.157-.135-4.657.167-.9.442-1.723.827-2.466.397-.757.795-1.337 1.192-1.742A7.901 7.901 0 0 1 7.731 1.22c.474-.313.807-.509 1-.587.205-.078.372-.137.5-.176a.615.615 0 0 1 .307 0 .539.539 0 0 1 .289.137.583.583 0 0 1 .173.587c-.013.105-.032.242-.058.411-.025.157-.051.49-.077.998-.025.496-.025.985 0 1.468.039.483.122 1.044.25 1.683.141.64.334 1.233.577 1.78.064.118.135.255.212.412.077.143.166.3.27.47.05-.483.134-.92.25-1.312.281-1.03.826-1.78 1.634-2.25a.839.839 0 0 1 .153-.079.522.522 0 0 1 .308-.058.553.553 0 0 1 .308.137c.09.065.154.156.192.274a.495.495 0 0 1 .039.332c0 .04-.007.092-.02.157 0 .065.007.196.02.391.012.196.038.398.077.607.05.209.134.47.25.783.128.313.288.626.48.939.436.744.731 1.422.885 2.035.167.6.25 1.37.25 2.31a8.37 8.37 0 0 1-.385 2.543 7.126 7.126 0 0 1-1.115 2.153 7.673 7.673 0 0 1-1.711 1.644 7.699 7.699 0 0 1-2.231 1.057 9.193 9.193 0 0 1-2.635.372zm-6-10.862c-.461 1.175-.692 2.199-.692 3.073 0 1.905.628 3.47 1.884 4.697 1.257 1.226 2.86 1.84 4.808 1.84 1.987 0 3.622-.614 4.904-1.84 1.295-1.227 1.942-2.792 1.942-4.697a8.52 8.52 0 0 0-.096-1.39 4.297 4.297 0 0 0-.288-1.095 7.71 7.71 0 0 0-.577-1.194c-.449-.757-.744-1.514-.885-2.27-.14.222-.25.47-.327.743a8.82 8.82 0 0 0-.23 1.35c-.052.496-.077.855-.077 1.077.012.222.025.378.038.47a.698.698 0 0 1-.116.391.552.552 0 0 1-.307.254l-.193.04a.507.507 0 0 1-.192-.04.675.675 0 0 1-.308-.235c-.769-1.108-1.314-2.009-1.634-2.7-.756-1.67-1.051-3.66-.885-5.969a6.467 6.467 0 0 0-.846.627 8.26 8.26 0 0 0-.865.9c-.308.365-.584.822-.827 1.37a8.434 8.434 0 0 0-.52 1.78A8.896 8.896 0 0 0 5.5 8.344c0 .548.026 1.03.077 1.448.051.404.122.802.211 1.193.09.379.154.646.193.803.051.156.09.26.115.313.026.052.039.11.039.176a.654.654 0 0 1-.02.157.352.352 0 0 1-.038.156 1.032 1.032 0 0 1-.096.157.585.585 0 0 1-.596.195 5.606 5.606 0 0 1-.25-.058 17.83 17.83 0 0 1-.5-.235 5.608 5.608 0 0 1-.712-.411 6.873 6.873 0 0 1-.75-.646c-.27-.287-.513-.6-.73-.94a5.49 5.49 0 0 1-.27-.488c-.09-.196-.173-.392-.25-.588z" fill="#C78E66"/></svg>
